X:65
T:Garrett Barry's   
B:CRE1.046 (Gearoid de Barra)
F:file ID: cre.1/065garr_b
S:Willie Clancy
M:6/8
Q:160
R:jig
K:G
"D modal"
A|DEF G3|A3 c2e|dcA cde|fed cAG|
"5"F3 G3|ABA cde|dcA GEA|D3 D2A|
"9"DEF G3|A3 c2e|dcA d2e|f2d cAG|
"13"F3 G3|ABA cde|dcA GEA|D3 D2||
e|"17"dcA d2e|f3 ef/g/e|dcA c2d|e2d ecA|
"21"dcA d2e|fed ef/g/e|dcA GEA|D3 D3|
"25"dcA d2e|f3 e3|dcA c2d|ef/g/d ecA|
"29"dcA d2e|fed ege|dcA GEA|D3 HD3|]

%%%

